X:1
T:Tulips
C:Ed ten Hoedt
M:6/8
K:G
z3z2D|:"G"GAB"Em"d2B|"Am"c>BA "D"F2 D|"G"GAB "Em"dcB|"Am"A4z"D"D|
"G"GAB"Em"d2B|"Am"c>BA "D"F2 D|"G"G>dc/B/ "D"AGF|"G"[1G4zD:||
"G"[2G4zG||"C"G4FG|"D"A4zd|"G"B2g"Em"e2c/B/|"Am"ABc"D"d2B/c/|
"G"ddd def|"C"gec A2d/c/|"G"BAG "D"AGF|"G"G4zD:|]
